lib/svgs/google.svg

<svg xmlns="http://www.w3.org/2000/svg" viewBox="0 0 20 20">
    <path fill="#000" fill-rule="evenodd" d="M13.9279767,3.65632 L14.020612,3.59376 L15.165015,2.68752 L16,2 L14.9176707,2 L9.87640701,2 C7.30937834,2 5.08248769,3.59376 5.08248769,5.65632 C5.08248769,7.84368 6.78349454,9.40624 9.22685106,9.43744 C9.1649358,9.62496 9.1649358,9.81248 9.1649358,9.9688 C9.1649358,10.34368 9.25772951,10.68752 9.44331693,11.0312 L9.35052322,11.0312 C6.41247806,11.0312 4,12.71872 4,14.81248 C4,16.78128 6.41247806,18 9.53611063,18 C12.69078,18 14.8866339,16.24992 14.8866339,14.06256 C14.8866339,12.5 14.3609084,11.5312 12.9691611,10.56256 C12.4123989,10.18752 11.7938797,9.56256 11.7938797,9.37504 C11.7938797,8.9688 11.9175519,8.81248 12.6288648,8.28128 C13.7423893,7.40624 14.2061994,6.81248 14.2061994,5.75008 C14.2061994,4.93744 13.9897336,4.18752 13.5876803,3.65632 L13.8041462,3.65632 L13.9279767,3.65632 L13.9279767,3.65632 L13.9279767,3.65632 Z M12.0722609,12.93744 C12.5051926,13.24992 12.69078,13.5 12.7835737,13.84368 C12.8144522,13.9688 12.845489,14.12496 12.845489,14.24992 C12.845489,15.62496 11.855795,16.40624 9.53611063,16.40624 C7.83510379,16.40624 6.56702867,15.40624 6.56702867,14.18752 C6.56702867,13.0312 8.08244811,12 9.87640701,12.0312 C10.2474235,12.0312 10.6185983,12.09376 10.9897732,12.18752 C10.9588947,12.18752 10.9278579,12.15632 10.9278579,12.15632 L11.0206516,12.18752 L10.9897732,12.18752 C11.1443238,12.31248 11.5154986,12.56256 11.5774139,12.56256 L12.0722609,12.93744 L12.0722609,12.93744 L12.0722609,12.93744 Z M7.64951637,5.34368 C7.46392895,3.93744 8.11348491,3.12496 9.22685106,3.15632 C10.4021325,3.18752 11.4227049,4.15632 11.6391708,5.56256 C11.8247582,7 11.1134453,8.09376 10.0618361,8.06256 C8.94846993,8.0312 7.86598224,6.81248 7.64951637,5.34368 L7.64951637,5.34368 L7.64951637,5.34368 L7.64951637,5.34368 Z"/>
</svg>

<svg xmlns="http://www.w3.org/2000/svg" viewBox="0 0 20 20">
    <path fill="#000" fill-rule="evenodd" d="M13.928 3.656l.093-.062 1.144-.906L16 2H9.876C7.31 2 5.082 3.594 5.082 5.656c0 2.188 1.701 3.75 4.145 3.781-.062.188-.062.375-.062.532 0 .375.093.719.278 1.062h-.092C6.412 11.031 4 12.72 4 14.812 4 16.782 6.412 18 9.536 18c3.155 0 5.35-1.75 5.35-3.937 0-1.563-.525-2.532-1.917-3.5-.557-.375-1.175-1-1.175-1.188 0-.406.124-.563.835-1.094 1.113-.875 1.577-1.469 1.577-2.53 0-.814-.216-1.563-.618-2.095H13.928m-1.856 9.281c.433.313.619.563.712.907.03.125.061.281.061.406 0 1.375-.99 2.156-3.309 2.156-1.7 0-2.969-1-2.969-2.218 0-1.157 1.515-2.188 3.31-2.157.37 0 .742.063 1.113.157-.031 0-.062-.032-.062-.032l.093.032h-.031c.154.124.525.375.587.375l.495.374M7.65 5.344c-.186-1.407.463-2.219 1.577-2.188 1.175.032 2.196 1 2.412 2.407.186 1.437-.526 2.53-1.577 2.5-1.114-.032-2.196-1.25-2.412-2.72"/>
</svg>
